X:304
T:From Night Till Morn
C:Welch MS
M:4/4
L:1/8
K:G
dc|B2B2B2G2|AGAB G2AB|cBAG GABc|d2ed B2A2|
B2B2B2G2|AGAB G2AB|cBAG GABG|[1A4G2:|[2A4G4 ||
GABc d2d2|d2e2d4|e2d2g2B2|d2ed B2A2|
B2B2B2G2|AGAB G2AB|cBAG GABG|A4G4:|
